X:30
T:This Is My Love, Do You Like Her
Z: id:dc-slide-31
M:6/8
L:1/8
K:A Dorian
c2B|A3 AGE|c2B c2d|e3 edB|g3-g2e|!
def gfe|dBA G2A|B2e dBG|A3:|!
A3|e2a age|d2g gfg|e2a age|g2b a2g|!
eaf g2e|dBA G2A|B2e dBG|A3:|!